svg/design/artboard_fill.svg

<?xml version="1.0" encoding="UTF-8"?>
<svg width="24px" height="24px" viewBox="0 0 24 24" version="1.1" xmlns="http://www.w3.org/2000/svg" xmlns:xlink="http://www.w3.org/1999/xlink">
    <title>artboard_fill</title>
    <g id="Icon" stroke="none" stroke-width="1" fill="none" fill-rule="evenodd">
        <g id="Design" transform="translate(-816.000000, -336.000000)">
            <g id="artboard_fill" transform="translate(816.000000, 336.000000)">
                <path d="M24,0 L24,24 L0,24 L0,0 L24,0 Z M12.5935,23.2578 L12.5819,23.2595 L12.5109,23.295 L12.4919,23.2987 L12.4767,23.295 L12.4057,23.2595 C12.3958,23.2564 12.387,23.259 12.3821,23.2649 L12.378,23.2758 L12.3609,23.7031 L12.3659,23.7235 L12.3769,23.7357 L12.4805,23.8097 L12.4953,23.8136 L12.5071,23.8097 L12.6107,23.7357 L12.6233,23.7197 L12.6267,23.7031 L12.6096,23.2758 C12.6076,23.2657 12.601,23.2593 12.5935,23.2578 Z M12.8584,23.1453 L12.8445,23.1473 L12.6598,23.2397 L12.6499,23.2499 L12.6472,23.2611 L12.6651,23.6906 L12.6699,23.7034 L12.6784,23.7105 L12.8793,23.8032 C12.8914,23.8069 12.9022,23.803 12.9078,23.7952 L12.9118,23.7812 L12.8777,23.1665 C12.8753,23.1546 12.8674,23.147 12.8584,23.1453 Z M12.143,23.1473 C12.1332,23.1424 12.1222,23.1453 12.1156,23.1526 L12.1099,23.1665 L12.0758,23.7812 C12.0751,23.7927 12.0828,23.8019 12.0926,23.8046 L12.1083,23.8032 L12.3092,23.7105 L12.3186,23.7024 L12.3225,23.6906 L12.3404,23.2611 L12.3372,23.2485 L12.3278,23.2397 L12.143,23.1473 Z" id="MingCute" fill-rule="nonzero"></path>
                <path d="M6,3 C6.55228,3 7,3.44772 7,4 L7,5 C7,6.10457 6.10457,7 5,7 L4,7 C3.44772,7 3,6.55228 3,6 C3,5.44772 3.44772,5 4,5 L5,5 L5,4 C5,3.44772 5.44772,3 6,3 Z M6,8 C6,6.89543 6.89543,6 8,6 L16,6 C17.1046,6 18,6.89543 18,8 L18,16 C18,17.1046 17.1046,18 16,18 L8,18 C6.89543,18 6,17.1046 6,16 L6,8 Z M7,20 C7,20.5523 6.55228,21 6,21 C5.44772,21 5,20.5523 5,20 L5,19 L4,19 C3.44772,19 3,18.5523 3,18 C3,17.4477 3.44772,17 4,17 L5,17 C6.10457,17 7,17.8954 7,19 L7,20 Z M18,3 C17.4477,3 17,3.44772 17,4 L17,5 C17,6.10457 17.8954,7 19,7 L20,7 C20.5523,7 21,6.55228 21,6 C21,5.44772 20.5523,5 20,5 L19,5 L19,4 C19,3.44772 18.5523,3 18,3 Z M17,20 C17,20.5523 17.4477,21 18,21 C18.5523,21 19,20.5523 19,20 L19,19 L20,19 C20.5523,19 21,18.5523 21,18 C21,17.4477 20.5523,17 20,17 L19,17 C17.8954,17 17,17.8954 17,19 L17,20 Z" id="形状" fill="#09244B"></path>
            </g>
        </g>
    </g>
</svg>

<svg xmlns="http://www.w3.org/2000/svg" width="24" height="24"><g fill="none" fill-rule="evenodd"><path d="M24 0v24H0V0h24ZM12.594 23.258l-.012.002-.071.035-.02.004-.014-.004-.071-.036c-.01-.003-.019 0-.024.006l-.004.01-.017.428.005.02.01.013.104.074.015.004.012-.004.104-.074.012-.016.004-.017-.017-.427c-.002-.01-.009-.017-.016-.018Zm.264-.113-.014.002-.184.093-.01.01-.003.011.018.43.005.012.008.008.201.092c.012.004.023 0 .029-.008l.004-.014-.034-.614c-.003-.012-.01-.02-.02-.022Zm-.715.002a.023.023 0 0 0-.027.006l-.006.014-.034.614c0 .012.007.02.017.024l.015-.002.201-.093.01-.008.003-.011.018-.43-.003-.012-.01-.01-.184-.092Z"/><path fill="#09244B" d="M6 3a1 1 0 0 1 1 1v1a2 2 0 0 1-2 2H4a1 1 0 0 1 0-2h1V4a1 1 0 0 1 1-1Zm0 5a2 2 0 0 1 2-2h8a2 2 0 0 1 2 2v8a2 2 0 0 1-2 2H8a2 2 0 0 1-2-2V8Zm1 12a1 1 0 1 1-2 0v-1H4a1 1 0 1 1 0-2h1a2 2 0 0 1 2 2v1ZM18 3a1 1 0 0 0-1 1v1a2 2 0 0 0 2 2h1a1 1 0 1 0 0-2h-1V4a1 1 0 0 0-1-1Zm-1 17a1 1 0 1 0 2 0v-1h1a1 1 0 1 0 0-2h-1a2 2 0 0 0-2 2v1Z"/></g></svg>
